src/svg/phone-outline.svg

<svg version="1.2" baseProfile="tiny" xmlns="http://www.w3.org/2000/svg" width="24" height="24" viewBox="0 0 24 24"><path d="M19.502 3.672l-1.795-1.793c-.566-.567-1.32-.879-2.121-.879s-1.555.312-2.121.879l-1.586 1.586c-1.17 1.17-1.17 3.072 0 4.242l1.379 1.379-4.172 4.172-1.379-1.379c-.566-.567-1.32-.879-2.121-.879s-1.555.312-2.121.879l-1.586 1.586c-1.17 1.17-1.17 3.072 0 4.242l1.794 1.793c.465.465 1.796 1.545 4.116 1.545 2.764 0 5.694-1.529 8.711-4.545 6.245-6.246 4.825-11.002 3.002-12.828zm-6.209 1.207l1.586-1.586c.195-.195.451-.293.707-.293s.512.098.707.293l1.083 1.082-3.001 3-1.082-1.082c-.391-.391-.391-1.023 0-1.414zm-10 11.414c-.391-.391-.391-1.023 0-1.414l1.586-1.586c.195-.195.451-.293.707-.293s.512.098.707.293l1.082 1.082-2.999 3-1.083-1.082zm11.793-1.207c-3.083 3.082-5.551 3.959-7.297 3.959-1.349 0-2.267-.523-2.702-.959-.004-.004 2.995-3.004 2.995-3.004l.297.297c.195.195.451.293.707.293s.512-.098.707-.293l5.586-5.586c.391-.391.391-1.023 0-1.414l-.297-.297 3.001-3c1.003 1.004 2.467 4.539-2.997 10.004z"/></svg>

<?xml version="1.0" encoding="iso-8859-1"?>
<!-- Generator: Adobe Illustrator 16.2.1, SVG Export Plug-In . SVG Version: 6.00 Build 0)  -->
<svg version="1.2" baseProfile="tiny" xmlns="http://www.w3.org/2000/svg" xmlns:xlink="http://www.w3.org/1999/xlink" x="0px"
	 y="0px" width="24px" height="24px" viewBox="0 0 24 24" xml:space="preserve">
<g id="Layer_1">
	<path d="M19.502,3.672l-1.795-1.793C17.141,1.312,16.387,1,15.586,1s-1.555,0.312-2.121,0.879l-1.586,1.586
		c-1.17,1.17-1.17,3.072,0,4.242l1.379,1.379l-4.172,4.172l-1.379-1.379C7.141,11.312,6.387,11,5.586,11s-1.555,0.312-2.121,0.879
		l-1.586,1.586c-1.17,1.17-1.17,3.072,0,4.242L3.673,19.5c0.465,0.465,1.796,1.545,4.116,1.545c2.764,0,5.694-1.529,8.711-4.545
		C22.745,10.254,21.325,5.498,19.502,3.672z M13.293,4.879l1.586-1.586C15.074,3.098,15.33,3,15.586,3s0.512,0.098,0.707,0.293
		l1.083,1.082l-3.001,3l-1.082-1.082C12.902,5.902,12.902,5.27,13.293,4.879z M3.293,16.293c-0.391-0.391-0.391-1.023,0-1.414
		l1.586-1.586C5.074,13.098,5.33,13,5.586,13s0.512,0.098,0.707,0.293l1.082,1.082l-2.999,3L3.293,16.293z M15.086,15.086
		c-3.083,3.082-5.551,3.959-7.297,3.959c-1.349,0-2.267-0.523-2.702-0.959c-0.004-0.004,2.995-3.004,2.995-3.004l0.297,0.297
		c0.195,0.195,0.451,0.293,0.707,0.293s0.512-0.098,0.707-0.293l5.586-5.586c0.391-0.391,0.391-1.023,0-1.414l-0.297-0.297l3.001-3
		C19.086,6.086,20.55,9.621,15.086,15.086z"/>
</g>
<g id="nyt_x5F_exporter_x5F_info" display="none">
</g>
</svg>
